X: 131279
T: Mike Sullivan's #2
S: "Johnny O'Leary of Sliabh Luachra" (#254)
Z: B.Black
L: 1/8
M: 4/4
R: hornpipe
K: Ador
A2 BG A2 Bd|(3efg ed ef g2|G2-GF G2 AB|
(3cBA BG AG (3EGF|A2 BG A2 (3Bcd|e2-ed ef g2|\
gage d2 ef|
|1 gedB BAAG :|2 gedB BA A2||a2-ag a2 ea|abba agef|
g2-gf gedf|geae ge d2|azag ag (3efg|abba agef|
gfge d2 ef|1 gedB BA A2 :|2 gedB BadB||
